**kern	**kern	**dynam
*part1	*part1	*part1
*staff2	*staff1	*
*I"Piano	*	*
*clefF4	*clefG2	*
*k[f#c#g#d#]	*k[f#c#g#d#]	*
*M2/4	*M2/4	*
=1	=1	=1
4E	(16eLL 16g#X	mp mf
.	16B	.
.	16e 16g#	.
.	16BJJ)	.
4r	(16f#LL 16a	.
.	16B	.
.	16f# 16a	.
.	16BJJ)	.
=	=	=
4E	(16g#LL 16b	.
.	16B	.
.	16g# 16b	.
.	16BJJ)	.
4r	(16eLL 16g#	.
.	16B	.
.	16e 16g#	.
.	16BJJ)	.
=	=	=
4BB	(16eLL 16g#	.
.	16B	.
.	16e 16g#	.
.	16BJJ)	.
4r	(16d#LL 16f#	.
.	16B	.
.	16d# 16f#	.
.	16BJJ)	.
=	=	=
4E	(16eLL 16g#	.
.	16B	.
.	16e 16g#	.
.	16BJJ)	.
4r	(16eLL 16g#	.
.	16B	.
.	16e 16g#	.
.	16BJJ)	.
=	=	=
(4E	(16eLL 16g#	.
.	16B	.
.	16e 16g#	.
.	16BJJ)	.
(4D#)	(16f#LL 16a	.
.	16B	.
.	16f# 16a	.
.	16BJJ)	.
=	=	=
4E)	(16eLL 16g#	.
.	16B	.
.	16e 16g#	.
.	16BJJ)	.
4r	(16eLL 16g#	.
.	16B	.
.	16e 16g#	.
.	16BJJ)	.
=	=	=
4E	(16eLL 16g#	.
.	16B	.
.	16e 16g#	.
.	16BJJ)	.
4BB	(16d#LL 16f#	.
.	16B	.
.	16d# 16f#	.
.	16BJJ)	.
=	=	=
*-	*-	*-
!!!system-decoration: {(s1,s2)}
